!!!COM: drake
!!!OTL: take-care
!!!RNB: hooktheoryid: AnLgaeR_gYp
**kern	**text
*clefG2	*
*k[b-e-a-]	*
*M4/4	*
=1	=1
4g	Cm
8g	.
[8gL	.
8g]J	Bb
8f	.
8f	.
8e-	Ab
=2	=2
8f	.
8f	.
8g	.
4g	.
8f	.
8f	.
8e-	.
=3	=3
8f	Cm
8f	.
8g	.
[8gL	.
8g]J	Bb
8f	.
8f	.
8e-	Ab
=4	=4
8f	.
8g	.
8g	.
4g	.
8f	.
8e-	.
8f	.
=5	=5
8g	Cm
8a-	.
8g	.
[8gL	.
8g]J	Bb
8f	.
8f	.
8e-	Ab
=6	=6
8f	.
8f	.
8g	.
4g	.
8f	.
8r	.
16e-	.
16f	.
=7	=7
8.g	Cm
8.a-	.
8g	.
8.f	Bb
8.f	.
8g	Ab
=8	=8
2e-	.
2r	.
*-	*-